X: 41830
T: Villancicu Pixuatu
R: jig
M: 6/8
K: Eminor
|:~E3 G2A|~B3 c2B|AGF ~B3|c2B AGB|A2G FED:|
|:~G3 FGA|G2F GFE|~G3 FGA|G2F E3:|

